X:1
T:Cantique de Noël
T:Cantique de Noël
T:Adolphe Adam
T:Mary Cappeau
T:De notre foi que la lumière ardente Nous guide tous au berceau de l'enfant Comme autrefois, une étoile brillante Y conduisit les chefs de l'Orient Le Roi des Rois naît dans une humble crèche, Puissants du jour fiers de votre grandeur, Ah ! votre orgueil c'est de là qu'un Dieu prêche, Courbez vos fronts devant le Rédempteur! Courbez vos fronts devant le Rédempteur!
T:    Le Rédempteur a brisé toute entrave, La terre est libre et le ciel est ouvert Il voit un frère où n'était qu'un esclave L'amour unit ceux qu'enchaînait le fer, Qui lui dira notre reconnaissance ? C'est pour nous tous qu'Il naît, qu'Il souffre et meurt: Peuple, debout ! chante ta délivrance, Noël ! Noël ! chantons le Rédempteur! Noël ! Noël ! chantons le Rédempteur! 
T:by IMSLP - Pubblico dominio
T:by IMSLP - Pubblico dominio
T:by IMSLP - Pubblico dominio
T:by IMSLP - Pubblico dominio
C:Adolphe Adam
Z:Placide Cappeau
Z:by IMSLP - Pubblico dominio
%%score 1 { ( 2 5 ) | ( 3 4 ) }
L:1/8
Q:1/4=60
M:4/4
K:C
V:1 treble nm="Chant."
V:2 treble nm="Piano."
V:5 treble 
V:3 bass 
V:4 bass 
V:1
"^Andante maestoso" z8 ||S z2 z3/2 E/ E2- E3/2 G/ | G2- G3/2 G/ A3/2 A/ F3/2 A/ | %3
w: |Mi- nuit, _ Chré-|tien, _ C'est l'heu, re so- len-|
 c4 G z/ G/ E3/2 D/ | C2 E3/2 F/ G2 F3/2 D/ | C4 z4 | z4 E2 E3/2 E/ | G2- G3/2 G/ A3/2 A/ F3/2 A/ | %8
w: nel- le Où l'hom- me|Dieu des- cen- dit jus- qu'à|nous,|Pour ef- fa\-|cer _ la tache o\- ri\- gi-|
 c4 G z/ G/ E3/2 D/ | B2 G3/2 A/ B2{d} c3/2 B/ | E4 z2 z3/2!pp! G/ | G2 A2 D2 G2 | %12
w: nel- le Et de son|Père ar- rê\- ter le cour-|roux. Le|monde en- tier tres-|
 G3/2 G/ c3/2 E/ A2 G z/ G/ | G2 A2 D2 G2 | A3/2 G/ c3/2 E/ G2- G z |!f! c4- c2 B3/2 A/ | %16
w: sail- le d'es- pé- ran\- ce À|cet- te nuit qui|lui don- neun Sau- veur. _|Peu * pleà ge-|
 B4- B2- B z/ B/ | d4- d3/2 A/ A3/2 A/ | c4 c2 z3/2 c/ | (e4 d7/2) G/ | c4- (c2 B3/2) A/ | %21
w: noux _ _ at-|tends _ ta dé- li-|vran- ce, No-|ël! _ No-|ël! _ _ Voi-|
 G4- G3/2 G/{B} A3/2 G/ | G6 z3/2 c/ | (d4 d7/2) G/ | e4- e2 d2 | c4 c2 !turn!c3/2 d/ | c4 z4 | %27
w: ci _ le Ré- demp-|teur! No-|ël! _ No-|ël! _ Voi-|ci le Ré- demp-|teur!|
 z8 | z8 | z8 | z8!D.S.! || z8!fine! |] %32
w: |||||
V:2
[I:staff +1] (6:4:6(E,[I:staff -1]C[I:staff +1]G,[I:staff -1]EC[I:staff +1]G,) (6:4:6(E,[I:staff -1]C[I:staff +1]G,[I:staff -1]EC[I:staff +1]G,) || %1
 (6:4:6(E,[I:staff -1]C[I:staff +1]G,[I:staff -1]EC[I:staff +1]G,) (6:4:6(E,[I:staff -1]C[I:staff +1]G,[I:staff -1]EC[I:staff +1]G,) | %2
 (6:4:6(E,[I:staff -1]C[I:staff +1]G,[I:staff -1]EC[I:staff +1]G,) (6:4:6(F,[I:staff -1]C[I:staff +1]A,[I:staff -1]FC[I:staff +1]A,) | %3
 (6:4:6(E,[I:staff -1]C[I:staff +1]G,[I:staff -1]EC[I:staff +1]G,) (6:4:6(F,[I:staff -1]C[I:staff +1]A,[I:staff -1]FC[I:staff +1]A,) | %4
 (6:4:6(E,[I:staff -1]C[I:staff +1]G,[I:staff -1]EC[I:staff +1]G,) (6:4:6(E,[I:staff -1]C[I:staff +1]G,[I:staff -1]DC[I:staff +1]G,) | %5
 (6:4:6(E,[I:staff -1]C[I:staff +1]G,[I:staff -1]EC[I:staff +1]G,) (6:4:6(E,[I:staff -1]C[I:staff +1]G,[I:staff -1]EC[I:staff +1]G,) | %6
 (6:4:6(E,[I:staff -1]C[I:staff +1]G,[I:staff -1]EC[I:staff +1]G,) (6:4:6(E,[I:staff -1]C[I:staff +1]G,[I:staff -1]EC[I:staff +1]G,) | %7
 (6:4:6(E,[I:staff -1]C[I:staff +1]G,[I:staff -1]EC[I:staff +1]G,) (6:4:6(F,[I:staff -1]C[I:staff +1]A,[I:staff -1]FC[I:staff +1]A,) | %8
 (6:4:6(E,[I:staff -1]C[I:staff +1]G,[I:staff -1]EC[I:staff +1]G,) (6:4:6(F,[I:staff -1]C[I:staff +1]A,[I:staff -1]EC[I:staff +1]A,) | %9
 (6:4:6(E,[I:staff -1]B,[I:staff +1]G,[I:staff -1]EB,[I:staff +1]G,) (6:4:6(^F,[I:staff -1]B,[I:staff +1]A,[I:staff -1]^D[I:staff +1]B,A,) | %10
 (6:4:6(E,[I:staff -1]B,[I:staff +1]G,[I:staff -1]EB,[I:staff +1]G,)!pp! (6:4:6(E,[I:staff -1]B,[I:staff +1]A,[I:staff -1]EB,[I:staff +1]A,) | %11
 (6:4:6(F,[I:staff -1]B,[I:staff +1]G,[I:staff -1]DB,[I:staff +1]G,) (6:4:6(F,[I:staff -1]B,[I:staff +1]G,[I:staff -1]DB,[I:staff +1]G,) | %12
 (6:4:6((E,[I:staff -1]C[I:staff +1]G,[I:staff -1]EC[I:staff +1]G,)) (6:4:6((E,[I:staff -1]C[I:staff +1]G,[I:staff -1]EC[I:staff +1]G,)) | %13
 (6:4:6((F,[I:staff -1]B,[I:staff +1]G,[I:staff -1]DB,[I:staff +1]G,)) (6:4:6((F,[I:staff -1]B,[I:staff +1]G,[I:staff -1]DB,[I:staff +1]G,)) | %14
 (6:4:6(E,[I:staff -1]C[I:staff +1]G,[I:staff -1]EC[I:staff +1]G,) (6:4:6((E,[I:staff -1]C[I:staff +1]G,[I:staff -1]EC[I:staff +1]G,)) | %15
!f! (6:4:6(E,[I:staff -1]C[I:staff +1]A,[I:staff -1]EC[I:staff +1]A,) (6:4:6(E,[I:staff -1]C[I:staff +1]A,[I:staff -1]EC[I:staff +1]A,) | %16
 (6:4:6(E,[I:staff -1]B,[I:staff +1]G,[I:staff -1]EB,[I:staff +1]G,) (6:4:6(E,[I:staff -1]B,[I:staff +1]G,[I:staff -1]EB,[I:staff +1]G,) | %17
 (6:4:6(E,[I:staff -1]D[I:staff +1]A,[I:staff -1]FD[I:staff +1]A,) (6:4:6(E,[I:staff -1]B,[I:staff +1]G,[I:staff -1]EB,[I:staff +1]G,) | %18
 (6:4:6(E,[I:staff -1]C[I:staff +1]A,[I:staff -1]EC[I:staff +1]A,) (6:4:6(E,[I:staff -1]C[I:staff +1]A,[I:staff -1]EC[I:staff +1]A,) | %19
 (6:4:6(E,[I:staff -1]C[I:staff +1]G,[I:staff -1]EC[I:staff +1]G,) (6:4:6(D,[I:staff -1]B,[I:staff +1]G,[I:staff -1]DB,[I:staff +1]G,) | %20
 (6:4:6(G,[I:staff -1]ECGEC)[I:staff +1] (6:4:6(F,[I:staff -1]C[I:staff +1]A,[I:staff -1]FC[I:staff +1]A,) | %21
 (6:4:6(E,[I:staff -1]C[I:staff +1]G,[I:staff -1]EC[I:staff +1]G,) (6:4:6(F,[I:staff -1]C[I:staff +1]G,[I:staff -1]EB,[I:staff +1]G,) | %22
 (6:4:6(E,[I:staff -1]C[I:staff +1]G,[I:staff -1]EC[I:staff +1]G,) (6:4:6(E,[I:staff -1]C[I:staff +1]G,[I:staff -1]EC[I:staff +1]G,) | %23
 (6:4:6(D,[I:staff -1]B,[I:staff +1]G,[I:staff -1]DB,[I:staff +1]G,) (6:4:6(D,[I:staff -1]B,[I:staff +1]G,[I:staff -1]DB,[I:staff +1]G,) | %24
 (6:4:6(G,[I:staff -1]ECGEC)[I:staff +1] (6:4:6(F,[I:staff -1]D[I:staff +1]A,[I:staff -1]FD[I:staff +1]A,) | %25
 (6:4:6(E,[I:staff -1]C[I:staff +1]G,[I:staff -1]EC[I:staff +1]G,)[I:staff -1] [B,D]2 z2 | %26
 C2 z2!ff! [CGc]2- [CGc]>[CGB] | [CFB]4 [DFA]2 [DFA]>[DFA] | [FGdf]4 [EGce]2 [FAd]2 | %29
 [Gc]4{ABc} !trill(!TB3 c/!trill)!d/ | c4 z4 || z8 |] %32
V:3
 [C,,G,,C,]8 || [C,,G,,C,]8 | [C,,G,,C,]4 [F,,C,]4 | [C,,G,,C,]4 [D,,C,]4 | [G,,,G,,]8 | %5
 [C,,G,,C,]8 | [C,,G,,C,]8 | [C,,G,,C,]4 [F,,C,]4 | [C,,G,,C,]4 [C,,C,]4 | [B,,,B,,]4 [B,,,B,,]4 | %10
 E,,4 x4 | B,,2 F,,2 B,,2 G,,2 | C,2 G,,2 C,2 G,,2 | B,,2 G,,2 B,,2 G,,2 | C,2- G,,2 C,2 z2 | %15
 E,4 E,4 | E,4 E,4 | E,4 E,4 | E,4 E,4 | E,4 D,4 | G,4 F,4 | E,4 F,4 | G,4 E,4 | D,4 D,4 | %24
 G,4 F,4 | E,4 [F,G,]2"^rall." z2 |"^a Tempo" [E,G,]2 x2 E,,4 | %27
 (6:4:6F,,A,,C,F,C,A,, (6:4:6D,,F,,A,,D,A,,F,, | B,,,4 (3E,,G,,C, (3F,,,D,,F,, | %29
 (6:4:6G,,,C,,E,,G,,E,,C,, (6:4:6G,,,D,,F,,G,,F,,D,, | %30
 (6:4:6(C,,E,,G,,C,E,G,) (6:4:6(CG,E,C,G,,E,,) || C,,8 |] %32
V:4
 x8 || x8 | x8 | x8 | x8 | x8 | x8 | x8 | x8 | x8 | x8 | B,,,8 | C,,8 | B,,,8 | C,,4- C,,2 x2 | %15
{A,,,E,,} [C,,G,,]8 |{D,,,A,,,} [D,,,D,,]8 |{E,,,B,,,} [G,,,G,,]8 |{A,,,E,,} [A,,,A,,]8 | %19
 [G,,,G,,]4 [F,,,F,,]4 | [E,,,E,,]4 [F,,,F,,]4 | [G,,,G,,]4 [F,,,F,,]4 | %22
 !>![C,,,C,,]2 !>![E,,,E,,]2 !>![G,,,G,,]2 !>![C,,C,]2 | [G,,,G,,]4 [F,,,F,,]4 | %24
 [E,,,E,,]4 [F,,,F,,]4 | [G,,,G,,]4 [E,,,F,,]2 x2 | %26
 (6:4:6(C,,E,,G,,C,E,C,) (6:4:6E,,"^marcato"G,,C,E,C,G,, | F,,4 D,,4 | %28
 (6:4:6B,,,D,,G,,B,,G,,D,, E,,2 F,,,2 | G,,,4 G,,,4 | x8 || x8 |] %32
V:5
 x8 || x8 | x8 | x8 | x8 | x8 | x8 | x8 | x8 | x8 | x8 | x8 | x8 | x8 | x8 | x8 | x8 | x8 | x8 | %19
 x8 | x8 | x8 | x8 | x8 | x8 | x8 | x8 | x8 | x8 | E4 F4 | E4 z4 || x8 |] %32

